hero/outline/ellipsis-horizontal-circle.svg

<svg width="24" height="24" viewBox="0 0 24 24" fill="none" xmlns="http://www.w3.org/2000/svg">
<path d="M8.625 12C8.625 12.2071 8.45711 12.375 8.25 12.375C8.04289 12.375 7.875 12.2071 7.875 12C7.875 11.7929 8.04289 11.625 8.25 11.625C8.45711 11.625 8.625 11.7929 8.625 12ZM8.625 12H8.25M12.375 12C12.375 12.2071 12.2071 12.375 12 12.375C11.7929 12.375 11.625 12.2071 11.625 12C11.625 11.7929 11.7929 11.625 12 11.625C12.2071 11.625 12.375 11.7929 12.375 12ZM12.375 12H12M16.125 12C16.125 12.2071 15.9571 12.375 15.75 12.375C15.5429 12.375 15.375 12.2071 15.375 12C15.375 11.7929 15.5429 11.625 15.75 11.625C15.9571 11.625 16.125 11.7929 16.125 12ZM16.125 12H15.75M21 12C21 16.9706 16.9706 21 12 21C7.02944 21 3 16.9706 3 12C3 7.02944 7.02944 3 12 3C16.9706 3 21 7.02944 21 12Z" stroke="#0F172A" stroke-width="1.5" stroke-linecap="round" stroke-linejoin="round"/>
</svg>

<svg viewBox="0 0 24 24" xmlns="http://www.w3.org/2000/svg"><path fill="none" stroke="#000" stroke-linecap="round" stroke-linejoin="round" stroke-width="1.5" d="M8.625 12v0c0 .2-.17.375-.375.375 -.21 0-.375-.17-.375-.375v0c0-.21.16-.375.375-.375 .2 0 .375.16.375.375Zm0 0H8.25m4.125 0v0c0 .2-.17.375-.375.375 -.21 0-.375-.17-.375-.375v0c0-.21.16-.375.375-.375 .2 0 .375.16.375.375Zm0 0H12m4.125 0v0c0 .2-.17.375-.375.375 -.21 0-.375-.17-.375-.375v0c0-.21.16-.375.375-.375 .2 0 .375.16.375.375Zm0 0h-.375M21 12v0c0 4.97-4.03 9-9 9 -4.98 0-9-4.03-9-9v0c0-4.98 4.02-9 9-9 4.97 0 9 4.02 9 9Z"/></svg>
